X:1
T:Ave Regina caelorum - Dufay arr. Gibb
T:James Gibb editions
T:Ave Regina caelorum - Dufay
T:#
%%score [ 1 2 3 ]
L:1/8
Q:1/4=108
M:3/4
K:Ab
V:1 treble nm="Alto" snm="A"
V:2 treble-8 nm="Tenor" snm="T"
V:3 bass nm="Bass" snm="B"
V:1
"^Ave Regina caelorum""^Guillaume Dufay \n(c.1400-1474)"{[C=d]} (c6 | =d4 c2) | =B6 | c4 B2 | %4
w: A\-||ve|Re- gi-|
 (c2 =dc) (BA) | (GA F =E2 =D) | F4 z2 | G4 c2 | (B2 A2) G2 | (F2 A2) B2 | c4 =B2 | c4 z2 | F6 | %13
w: na * * cae\- *|lo\- * * * *|rum,|A- ve,|Do\- * mi-|na * an-|ge- lo-|rum,|Sal-|
 E4 D2 | C2 D4 | C4 z2 | F2 E2 F2 | G4 A2 | F2 =E4 | F4 z2 | A6 | G4 F2 | F2 G4 | F4 z2 | %24
w: ve ra-|dix sanc-|ta,|Ex qua mun-|do lux|est or-|ta.|Gau-|de glo-|ri- o-|sa,|
 c2 c2 B2 | c4 A2 | G2 F4 | G4 z2 | c4 B2 | A4 G2 | (E2 A2) G2 | A4 z2 | c2 c2 B2 | (A2 G2) B2 | %34
w: Su- per om-|nes spe-|ci- o-|sa.|Va- le,|val- de|de\- * co-|ra,|Et pro no-|bis * sem-|
 c6 | (d c2 B A2) | (G2 cB) (AG) | (F2 CF=E=D) | F4 z2 | G6 | (A4 B2 | c4 B2 | c2 dcBA | G2 F4) | %44
w: per|Chris\- * * *|tum * * ex *|o\- * * * *|ra.|Al-|le\- *||||
 =E6 | F6 |] %46
w: lu-|ia.|
V:2
{[B,=d]} F6- | F6 | =E6 | F4 =d2 | c4 =d2 | (=d2 c2 =B2) | c4 z2 | E4 E2 | F4 c2 | F4 E2 | %10
w: A\-||ve|Re- gi-|na cae-|lo\- * *|rum,|A- ve,|Do- mi-|na an-|
 (A2 G2) ^F2 | G4 z2 | A6 | A4 B2 | F2 F4 | F4 z2 | c2 B2 c2 | =d4 c2 | c2 =B4 | c4 z2 | F6 | %21
w: ge\- * lo-|rum,|Sal-|ve ra-|dix sanc-|ta,|Ex qua mun-|do lux|est or-|ta.|Gau-|
 c4 F2 | F2 c4 | F4 z2 | F2 G2 F2 | E4 E2 | =D2 C4 | =D4 z2 | F4 E2 | F4 B,2 | C4 =D2 | E4 z2 | %32
w: de glo-|ri- o-|sa,|Su- per om-|nes spe-|ci- o-|sa.|Va- le,|val- de|de- co-|ra,|
 A2 A2 F2 | E4 F2 | G6 | (A2 G F2 E) | =D4 C2 | (=D2 C2 =B,2) | C4 (F2 | E2 =D2 C2) | (F4 B2 | F6 | %42
w: Et pro no-|bis sem-|per|Chris\- * * *|tum ex|o\- * *|ra. Al\-||le\- *||
 G2 F2 E2 | =D4 C2) | =B,6 | C6 |] %46
w: ||lu-|ia.|
V:3
{[F,,G,]} (C,6 | B,,4 A,,2) | G,,6 | F,,4 G,,2 | A,,4 G,,2 | (B,,2 A,,2 G,,2) | F,,4 z2 | C,4 C,2 | %8
w: A\-||ve|Re- gi-|na cae-|lo\- * *|rum,|A- ve,|
 =D,4 E,2 | F,4 G,2 | (F,2 E,2) =D,2 | C,4 z2 | D,6 | C,4 B,,2 | A,,2 B,,4 | C,4 z2 | %16
w: Do- mi-|na an-|ge\- * lo-|rum,|Sal-|ve ra-|dix sanc-|ta,|
 F,,2 G,,2 A,,2 | B,,4 F,,2 | A,,2 G,,4 | F,,4 z2 | F,6 | E,4 F,2 | =D,2 =E,4 | F,4 z2 | %24
w: Ex qua mun-|do lux|est or-|ta.|Gau-|de glo-|ri- o-|sa,|
 F,2 E,2 D,2 | C,4 C,2 | B,,2 A,,4 | G,,4 z2 | F,,4 G,,2 | F,,4 E,,2 | (A,,2 C,2) B,,2 | A,,4 z2 | %32
w: Su- per om-|nes spe-|ci- o-|sa.|Va- le,|val- de|de\- * co-|ra,|
 A,,2 A,,2 B,,2 | C,4 D,2 | C,6 | F,,6 | G,,4 A,,2 | (B,,2 A,,2 G,,2) | F,,4 z2 | (C,2 =D,2 E,2) | %40
w: Et pro no-|bis sem-|per|Chris-|tum ex|o\- * *|ra.|Al\- * *|
 (F,4 G,2 | F,2 E,2 D,2 | C,6 | B,,4 A,,2) | G,,6 | F,,6 |] %46
w: le\- *||||lu-|ia.|

